X:1535
T:Jolly Tinker, The
R:reel
N:"collected from Tuohy"
B:"O'Neill's Dance Music of Ireland, 1535"
T: an stanadoir suga.c.
Z:transcribed by John B. Walsh, walsh@math.ubc.ca 8/23/96
M:C|
L:1/8
K:D
A3 F GFGB|A2af gedB|ABAF GFGB|1 dBGB dedB:|2 dBGB d2((3Bcd)||
e^def g2 (ef)|g2(af) gfed|e^d ((3efg) ageg|a2 (bg) aged:|
eaag edBd|eaag ((3efg) dg|eaag efge|dBGB d2((3Bcd):|
edgd ed ((3Bcd)|edgd e2((3Bcd)|edgd efge|dBGB d2 (Bd):|
eA ((3AAA) edBd|e^def gefd|eA ((3AAA) efge|dBGB d2 (Bd)|
ea{b}ag edBd|e^def gefd|efgb afge|dBGB dedB !D.C.!||


